%
O0001 (MOLDE CAVIDADE - DESBASTE)
(POST: FANUC 0i - MM)
(MATERIAL: ACO P20 ~30 HRC)
(PROGRAMADOR: CAM - REV A)
N10 G21 G17 G40 G49 G80 G90
N20 G54 G90
N30 (FERRAMENTA 1 - FRESA TOPO 16MM)
N40 T1 M06
N50 G43 H1 Z100.
N60 S1800 M03
N70 M08
N80 G00 X-10. Y-10.
N90 Z2.
N100 G01 Z-3. F250
N110 X130. F650
N120 Y40.
N130 X-10.
N140 G00 Z100. M09
N150 (FERRAMENTA 2 - FRESA TOPO 10MM)
N160 T2 M06
N170 G43 H2 Z100.
N180 S2600 M03
N190 M08
N200 G00 X0. Y0.
N210 G01 Z-6. F220
N220 G41 D2 X10.
N230 G03 X20. Y10. R10.
N240 G01 Y60.
N250 G40 X0.
N260 G00 Z100. M09
N270 (FERRAMENTA 11 - BROCA DE CENTRO)
N280 T11 M06
N290 G43 H11 Z50.
N300 S3000 M03
N310 G81 X20. Y20. Z-5. R2. F120
N320 X40.
N330 G80
N340 G00 Z150. M09
N350 M05
N360 M30
%
